X:7
T:Widdow Wadman. VWMLa.007
%%VWML:Anon2-3049-p6-0
F:http://www.vwml.org/record/Anon2/3049/p6
R:Reel
S:Anon. MS, late 18thC, Vaughan Williams Mem. Library
O:England;Yorkshire
Z:vmp/efdss.Simon Wilson. Reviewed PJH 2008.
M:C
L:1/8
Q:2/4=90
K:D
d2(fd) (ec)A2|(Bd)(ce) (Bd)(ce)|\
d2(fd)(ec)A2|Bdced4:|
|:(FD)(FD)A2A2|FDFDA,2A,2|\
FDFDA2A2|Bdced4:|
T:Lilling Hall. VWMLa.008
T:Linnen Hall,aka. VWMLa.008
R:Jig
S:Anon. MS, late 18thC, Vaughan Williams Mem. Library
O:England;Yorkshire
Z:vmp/efdss.Simon Wilson. Reviewed PJH 2008.
M:6/8
L:1/8
Q:3/8=120
K:Bb
B2B c2c|d2e fdB|G2G e2d|cdB AGF|\
B2B c2c|d2e fdB|Ged cBA|B3 B,3:|
|:f2f g2g|f2b fdB|f2fg2g|fdB c3|\
f2f g2g|f2b b2a|gba gf=e|f3 !D.C.!F3:|
